public/avatar/hat/29.svg

<svg xmlns:xlink="http://www.w3.org/1999/xlink" height="92.9" width="100.7" xmlns="http://www.w3.org/2000/svg"><use height="30.1" transform="translate(19.55 35.6)" width="36.65" xlink:href="#a"/><defs><g id="a"><path d="M7.5-7.15q1.05-1.75 1.1-2.8 3.15 4.1.1 11.3l-3.05 1.1 1.2-2.3q.85-1.7 1.3-3.5.5-1.8-.65-3.8M15.3-.7q0 3.35-1.6 6.9l-1.6 1.9q1.7.6 3.5-.4l1.15-.7q-.9 3.75-3.7 7.6-2-4.85-3.95-7.8Q10.55 6 12 4.85q1.25-1.05 2-2.65l1.3-2.9m-33.7 5.2 3.95 2q.5 1.1.75 2.85l-2.4-2-2.3-2.85m3.25-9.25L-9.3.75q.15 1.1-.6 2.6l-1.65-1.45q-1.3-1.5-2-3.35l-1.6-3.3m7.35-5.65q2.35 2.6 4.6 7 .35.7.25 1.4Q-3.2.1-5.4.25V-2.9q-.1-2-.9-3.7l-1.5-3.8m8.9-3.25q3.3 1.95 3.1 8.6L4.15-3.4l-.05.5-.05.25q-.4 1.5-1.7 2.75.3-1.35.25-2.75Q1.25-.05-.65.6L.8-2.25Q1.55-4 1.7-5.9v-3.6l-.6-4.15" fill="#aed7ff" fill-rule="evenodd" transform="translate(19.1 14.15)"/><path d="M8.7 1.35q2.85-3.5 6.1-5.6l.5 2.1V-.7L14 2.2q-.75 1.6-2 2.65Q10.55 6 9.1 6.8 6.95 3.6 4.85 2.65l-.25-.1Q2.4 1.7-.4 4.5q-5.35-6.95-13.8 10.95-5.35-7.5-4.2-10.95l2.3 2.85 2.4 2q-.25-1.75-.75-2.85l-.45-1.05q-2.25-5-.25-10.2l1.6 3.3q.7 1.85 2 3.35l1.65 1.45q.75-1.5.6-2.6-1.75-7.35 1.5-11.15l1.5 3.8q.8 1.7.9 3.7V.25Q-3.2.1-2.95-2q.1-.7-.25-1.4.05-7.4 4.3-10.25l.6 4.15v3.6Q1.55-4 .8-2.25L-.65.6q1.9-.65 3.25-3.25.05 1.4-.25 2.75 1.3-1.25 1.7-2.75l3.45-4.5q1.15 2 .65 3.8-.45 1.8-1.3 3.5l-1.2 2.3 3.05-1.1m5 4.85q1.9-1.1 3.35-1.3l-.3 2.1-1.15.7q-1.8 1-3.5.4l1.6-1.9" fill="#fff" fill-rule="evenodd" transform="translate(19.1 14.15)"/><path d="M7.5-7.15q1.05-1.75 1.1-2.8 3.15 4.1.1 11.3 2.85-3.5 6.1-5.6l.5 2.1V-.7q0 3.35-1.6 6.9 1.9-1.1 3.35-1.3l-.3 2.1q-.9 3.75-3.7 7.6m-27.25.85q-5.35-7.5-4.2-10.95l3.95 2-.45-1.05q-2.25-5-.25-10.2L-9.3.75Q-11.05-6.6-7.8-10.4q2.35 2.6 4.6 7 .05-7.4 4.3-10.25 3.3 1.95 3.1 8.6L4.15-3.4m-.05.5-.05.25 3.45-4.5Z" fill="none" stroke="#39c" stroke-linecap="round" stroke-linejoin="round" transform="translate(19.1 14.15)"/></g></defs></svg>

<?xml version="1.0" encoding="UTF-8" standalone="no"?>
<svg xmlns:xlink="http://www.w3.org/1999/xlink" height="92.9px" width="100.7px" xmlns="http://www.w3.org/2000/svg">
  <g transform="matrix(1.0, 0.0, 0.0, 1.0, 38.65, 49.75)">
    <use height="30.1" transform="matrix(1.0, 0.0, 0.0, 1.0, -19.1, -14.15)" width="36.65" xlink:href="#shape0"/>
  </g>
  <defs>
    <g id="shape0" transform="matrix(1.0, 0.0, 0.0, 1.0, 19.1, 14.15)">
      <path d="M7.5 -7.15 Q8.55 -8.9 8.6 -9.95 11.75 -5.85 8.7 1.35 L5.65 2.45 6.85 0.15 Q7.7 -1.55 8.15 -3.35 8.65 -5.15 7.5 -7.15 M15.3 -0.7 Q15.3 2.65 13.7 6.2 L12.1 8.1 Q13.8 8.7 15.6 7.7 L16.75 7.0 Q15.85 10.75 13.05 14.6 11.05 9.75 9.1 6.8 10.55 6.0 12.0 4.85 13.25 3.8 14.0 2.2 L15.3 -0.7 M-18.4 4.5 L-14.45 6.5 Q-13.95 7.6 -13.7 9.35 L-16.1 7.35 -18.4 4.5 M-15.15 -4.75 L-9.3 0.75 Q-9.15 1.85 -9.9 3.35 L-11.55 1.9 Q-12.85 0.4 -13.55 -1.45 L-15.15 -4.75 M-7.8 -10.4 Q-5.45 -7.8 -3.2 -3.4 -2.85 -2.7 -2.95 -2.0 -3.2 0.1 -5.4 0.25 L-5.4 -2.9 Q-5.5 -4.9 -6.3 -6.6 L-7.8 -10.4 M1.1 -13.65 Q4.4 -11.7 4.2 -5.05 L4.15 -3.4 4.1 -2.9 4.05 -2.65 Q3.65 -1.15 2.35 0.1 2.65 -1.25 2.6 -2.65 1.25 -0.05 -0.65 0.6 L0.8 -2.25 Q1.55 -4.0 1.7 -5.9 L1.7 -9.5 1.1 -13.65" fill="#aed7ff" fill-rule="evenodd" stroke="none"/>
      <path d="M8.7 1.35 Q11.55 -2.15 14.8 -4.25 L15.3 -2.15 15.3 -0.7 14.0 2.2 Q13.25 3.8 12.0 4.85 10.55 6.0 9.1 6.8 6.95 3.6 4.85 2.65 L4.6 2.55 Q2.4 1.7 -0.4 4.5 -5.75 -2.45 -14.2 15.45 -19.55 7.95 -18.4 4.5 L-16.1 7.35 -13.7 9.35 Q-13.95 7.6 -14.45 6.5 L-14.9 5.45 Q-17.15 0.45 -15.15 -4.75 L-13.55 -1.45 Q-12.85 0.4 -11.55 1.9 L-9.9 3.35 Q-9.15 1.85 -9.3 0.75 -11.05 -6.6 -7.8 -10.4 L-6.3 -6.6 Q-5.5 -4.9 -5.4 -2.9 L-5.4 0.25 Q-3.2 0.1 -2.95 -2.0 -2.85 -2.7 -3.2 -3.4 -3.15 -10.8 1.1 -13.65 L1.7 -9.5 1.7 -5.9 Q1.55 -4.0 0.8 -2.25 L-0.65 0.6 Q1.25 -0.05 2.6 -2.65 2.65 -1.25 2.35 0.1 3.65 -1.15 4.05 -2.65 L7.5 -7.15 Q8.65 -5.15 8.15 -3.35 7.7 -1.55 6.85 0.15 L5.65 2.45 8.7 1.35 M13.7 6.2 Q15.6 5.1 17.05 4.9 L16.75 7.0 15.6 7.7 Q13.8 8.7 12.1 8.1 L13.7 6.2" fill="#ffffff" fill-rule="evenodd" stroke="none"/>
      <path d="M7.5 -7.15 Q8.55 -8.9 8.6 -9.95 11.75 -5.85 8.7 1.35 11.55 -2.15 14.8 -4.25 L15.3 -2.15 15.3 -0.7 Q15.3 2.65 13.7 6.2 15.6 5.1 17.05 4.9 L16.75 7.0 Q15.85 10.75 13.05 14.6 M-14.2 15.45 Q-19.55 7.95 -18.4 4.5 L-14.45 6.5 -14.9 5.45 Q-17.15 0.45 -15.15 -4.75 L-9.3 0.75 Q-11.05 -6.6 -7.8 -10.4 -5.45 -7.8 -3.2 -3.4 -3.15 -10.8 1.1 -13.65 4.4 -11.7 4.2 -5.05 L4.15 -3.4 M4.1 -2.9 L4.05 -2.65 7.5 -7.15 Z" fill="none" stroke="#3399cc" stroke-linecap="round" stroke-linejoin="round" stroke-width="1.0"/>
    </g>
  </defs>
</svg>
